!!!COM: des Prez, Josquin
!!!CDT: ~1450-1521/08/27
!!!OTL@@FRE: Une musque de Biscaye
!!!AGN: Chanson
!!!SCT: NJE 28.35
!!!SCA: New Josquin Edition 28.35
!!!voices: 4
**kern	**text	**text	**text	**text	**kern	**text	**text	**text	**text	**kern	**text	**text	**text	**text	**kern	**text	**text	**text	**text
*staff4	*staff4	*staff4	*staff4	*staff4	*staff3	*staff3	*staff3	*staff3	*staff3	*staff2	*staff2	*staff2	*staff2	*staff2	*staff1	*staff1	*staff1	*staff1	*staff1
*Ivox	*	*	*	*	*Ivox	*	*	*	*	*Ivox	*	*	*	*	*Ivox	*	*	*	*
*I"Bassus	*	*	*	*	*I"Tenor	*	*	*	*	*I"Altus	*	*	*	*	*I"Superius	*	*	*	*
*I'B	*	*	*	*	*I'T	*	*	*	*	*I'A	*	*	*	*	*I'S	*	*	*	*
*clefF4	*	*	*	*	*clefGv2	*	*	*	*	*clefGv2	*	*	*	*	*clefG2	*	*	*	*
*k[b-]	*	*	*	*	*k[b-]	*	*	*	*	*k[]	*	*	*	*	*k[b-]	*	*	*	*
*M2/1	*	*	*	*	*M2/1	*	*	*	*	*M2/1	*	*	*	*	*M2/1	*	*	*	*
*met(C|)	*	*	*	*	*met(C|)	*	*	*	*	*met(C|)	*	*	*	*	*met(C|)	*	*	*	*
=1-	=1-	=1-	=1-	=1-	=1-	=1-	=1-	=1-	=1-	=1-	=1-	=1-	=1-	=1-	=1-	=1-	=1-	=1-	=1-
!	!	!	!	!	!LO:TX:Z=9:t=Trans. of A canon&colon; He who flies above me is silent / He who sings on the dot comes after me	!	!	!	!	!LO:TX:Z=9:t=Quiescit qui super me volat / Venit post me qui in punctu clamat	!	!	!	!	!LO:TX:Z=9:t=Canon at the upper 4th (A-->S, 1 semibreve). Textless in the sources; underlay conjectural 	!	!	!	!
1.F	U-	Je	Par	A-	1.f	U-	Je	Par	A-	1r	.	.	.	.	0r	.	.	.	.
.	.	.	.	.	.	.	.	.	.	[1c	U-	Je	Par	A-	.	.	.	.	.
2G\	-ne	lui	mon	-voir	4e\	-ne	lui	mon	-voir	.	.	.	.	.	.	.	.	.	.
.	.	.	.	.	4d\	.	.	.	.	.	.	.	.	.	.	.	.	.	.
=2	=2	=2	=2	=2	=2	=2	=2	=2	=2	=2	=2	=2	=2	=2	=2	=2	=2	=2	=2
1A	mus-	dis	ser-	n'en	1c	mus-	dis	ser-	n'en	2c\]	.	.	.	.	1.f	U-	Je	Par	A-
.	.	.	.	.	.	.	.	.	.	4d\	-ne	lui	mon	-voir	.	.	.	.	.
.	.	.	.	.	.	.	.	.	.	4e\	.	.	.	.	.	.	.	.	.
2D\	-que	que	-ment,	peuz	1d	-que	que	-ment,	peuz	[1f	mus-	dis	ser-	n'en	.	.	.	.	.
[2B-\	de	de	ve-	aul-	.	.	.	.	.	.	.	.	.	.	4g/	-ne	lui	mon	-voir
.	.	.	.	.	.	.	.	.	.	.	.	.	.	.	4a/	.	.	.	.
=3	=3	=3	=3	=3	=3	=3	=3	=3	=3	=3	=3	=3	=3	=3	=3	=3	=3	=3	=3
4B-\]	.	.	.	.	2.B-\	de	de	ve-	aul-	2f\]	.	.	.	.	1.b-	mus-	dis	ser-	n'en
4A\	.	.	.	.	.	.	.	.	.	.	.	.	.	.	.	.	.	.	.
2.G\	.	.	.	.	.	.	.	.	.	2.e\	-que	que	-ment,	peuz	.	.	.	.	.
.	.	.	.	.	4A/	.	.	.	.	.	.	.	.	.	.	.	.	.	.
.	.	.	.	.	2G/	.	.	.	.	.	.	.	.	.	.	.	.	.	.
4F\	.	.	.	.	.	.	.	.	.	4d\	.	.	.	.	.	.	.	.	.
2D\	Bis-	Bis-	-cy	-tre	2F/	Bis-	Bis-	-cy	-tre	[2d\	de	de	ve-	aul-	[2a/	-que	que	-ment,	peuz
=4	=4	=4	=4	=4	=4	=4	=4	=4	=4	=4	=4	=4	=4	=4	=4	=4	=4	=4	=4
1E	-ca-	-ca-	ra-	cho-	1G	-ca-	-ca-	ra-	cho-	2d\]	.	.	.	.	4a/]	.	.	.	.
.	.	.	.	.	.	.	.	.	.	.	.	.	.	.	4g/	.	.	.	.
.	.	.	.	.	.	.	.	.	.	2c#i\	Bis-	Bis-	-cy	-tre	1g	de	de	ve-	aul-
1D	-ye	-ye	-ge:	-se,	1A	.	.	.	.	1d	-ca-	-ca-	ra-	cho-	.	.	.	.	.
.	.	.	.	.	.	.	.	.	.	.	.	.	.	.	2f#i/	Bis-	Bis-	-cy	-tre
=5	=5	=5	=5	=5	=5	=5	=5	=5	=5	=5	=5	=5	=5	=5	=5	=5	=5	=5	=5
2r	.	.	.	.	1G	-ye	-ye	-ge:	-se,	1d	-ye	-ye	-ge:	-se,	1g	-ca-	-ca-	ra-	cho-
1G	L'au-	J'es-	Ce	Par	.	.	.	.	.	.	.	.	.	.	.	.	.	.	.
.	.	.	.	.	2r	.	.	.	.	[1e	L'au-	J'es-	Ce	Par	1g	-ye	-ye	-ge:	-se,
2E\	-tre	-toys	n'est	ma	[2c\	L'au-	J'es-	Ce	Par	.	.	.	.	.	.	.	.	.	.
=6	=6	=6	=6	=6	=6	=6	=6	=6	=6	=6	=6	=6	=6	=6	=6	=6	=6	=6	=6
1A	jour	son	fran-	foy,	2c\]	.	.	.	.	2e\]	.	.	.	.	1.a	L'au-	J'es-	Ce	Par
.	.	.	.	.	2A/	-tre	-toys	n'est	ma	2c\	-tre	-toys	n'est	ma	.	.	.	.	.
2r	.	.	.	.	1d	jour	son	fran-	foy,	1f	jour	son	fran-	foy,	.	.	.	.	.
2D\	pres	pro-	-&ccedil;oys	a	.	.	.	.	.	.	.	.	.	.	2f/	-tre	-toys	n'est	ma
=7	=7	=7	=7	=7	=7	=7	=7	=7	=7	=7	=7	=7	=7	=7	=7	=7	=7	=7	=7
1G	ung	-chain	ne	ce	2r	.	.	.	.	2e\	pres	pro-	-&ccedil;oys	a	1b-	jour	son	fran-	foy,
.	.	.	.	.	2G/	pres	pro-	-&ccedil;oys	a	2.d\	ung	-chain	ne	ce	.	.	.	.	.
2r	.	.	.	.	1c	ung	-chain	ne	ce	.	.	.	.	.	2a/	pres	pro-	-&ccedil;oys	a
.	.	.	.	.	.	.	.	.	.	4c\	.	.	.	.	.	.	.	.	.
2C/	mou-	voi-	la-	ma-	.	.	.	.	.	[2c\	.	.	.	.	[2g/	ung	-chain	ne	ce
=8	=8	=8	=8	=8	=8	=8	=8	=8	=8	=8	=8	=8	=8	=8	=8	=8	=8	=8	=8
1D	.	.	.	.	2r	.	.	.	.	2c\]	.	.	.	.	4g/]	.	.	.	.
.	.	.	.	.	.	.	.	.	.	.	.	.	.	.	4f/	.	.	.	.
.	.	.	.	.	2F/	mou-	voi-	la-	ma-	2B\	mou-	voi-	la-	ma-	1f	.	.	.	.
1C	-lin	-sin:	-tin.	-tin,	1G	-lin	-sin:	-tin.	-tin,	1c	-lin	-sin:	-tin.	-tin,	.	.	.	.	.
.	.	.	.	.	.	.	.	.	.	.	.	.	.	.	2e/	mou-	voi-	la-	ma-
=9	=9	=9	=9	=9	=9	=9	=9	=9	=9	=9	=9	=9	=9	=9	=9	=9	=9	=9	=9
1.F	Vint	Mec-	Par-	Fors	2F/	.	.	.	.	1r	.	.	.	.	1f	-lin	-sin:	-tin.	-tin,
.	.	.	.	.	1f	Vint	Mec-	Par-	Fors	.	.	.	.	.	.	.	.	.	.
.	.	.	.	.	.	.	.	.	.	[1c	Vint	Mec-	Par-	Fors	1r	.	.	.	.
2G\	a	-ton	-lez	bai-	4e\	a	-ton	-lez	bai-	.	.	.	.	.	.	.	.	.	.
.	.	.	.	.	4d\	.	.	.	.	.	.	.	.	.	.	.	.	.	.
=10	=10	=10	=10	=10	=10	=10	=10	=10	=10	=10	=10	=10	=10	=10	=10	=10	=10	=10	=10
1A	moy	nous	moy	-ser	1c	moy	nous	moy	-ser	2c\]	.	.	.	.	1.f	Vint	Mec-	Par-	Fors
.	.	.	.	.	.	.	.	.	.	4d\	a	-ton	-lez	bai-	.	.	.	.	.
.	.	.	.	.	.	.	.	.	.	4e\	.	.	.	.	.	.	.	.	.
2D\	sans	prest	aul-	a	1d	sans	prest	aul-	a	[1f	moy	nous	moy	-ser	.	.	.	.	.
[2B-\	di-	ces-	-tre	bou-	.	.	.	.	.	.	.	.	.	.	4g/	a	-ton	-lez	bai-
.	.	.	.	.	.	.	.	.	.	.	.	.	.	.	4a/	.	.	.	.
=11	=11	=11	=11	=11	=11	=11	=11	=11	=11	=11	=11	=11	=11	=11	=11	=11	=11	=11	=11
4B-\]	.	.	.	.	2.B-\	di-	ces-	-tre	bou-	2f\]	.	.	.	.	1.b-	moy	nous	moy	-ser
4A\	.	.	.	.	.	.	.	.	.	.	.	.	.	.	.	.	.	.	.
2.G\	.	.	.	.	.	.	.	.	.	2.e\	sans	prest	aul-	a	.	.	.	.	.
.	.	.	.	.	4A/	.	.	.	.	.	.	.	.	.	.	.	.	.	.
.	.	.	.	.	2G/	.	.	.	.	.	.	.	.	.	.	.	.	.	.
4F\	.	.	.	.	.	.	.	.	.	4d\	.	.	.	.	.	.	.	.	.
2D\	-re	-te	lan-	-che	2F/	-re	-te	lan-	-che	[2d\	di-	ces-	-tre	bou-	[2a/	sans	prest	aul-	a
=12	=12	=12	=12	=12	=12	=12	=12	=12	=12	=12	=12	=12	=12	=12	=12	=12	=12	=12	=12
1E	gai-	ha-	-ga-	clo-	1G	gai-	ha-	-ga-	clo-	2d\]	.	.	.	.	4a/]	.	.	.	.
.	.	.	.	.	.	.	.	.	.	.	.	.	.	.	4g/	.	.	.	.
.	.	.	.	.	.	.	.	.	.	2c#i\	-re	-te	lan-	-che	1g	di-	ces-	-tre	bou-
1D	-re,	-ie	-ge,	-se	1A	.	.	.	.	1d	gai-	ha-	-ga-	clo-	.	.	.	.	.
.	.	.	.	.	.	.	.	.	.	.	.	.	.	.	2f#i/	-re	-te	lan-	-che
=13	=13	=13	=13	=13	=13	=13	=13	=13	=13	=13	=13	=13	=13	=13	=13	=13	=13	=13	=13
2r	.	.	.	.	1G	-re,	-ie	-ge,	-se	1d	-re,	-ie	-ge,	-se	1g	gai-	ha-	-ga-	clo-
1G	Moy	En	Et	Et	.	.	.	.	.	.	.	.	.	.	.	.	.	.	.
.	.	.	.	.	2r	.	.	.	.	[1e	Moy	En	Et	Et	1g	-re,	-ie	-ge,	-se
2E\	hur-	l'om-	lais-	la	[2c\	Moy	En	Et	Et	.	.	.	.	.	.	.	.	.	.
=14	=14	=14	=14	=14	=14	=14	=14	=14	=14	=14	=14	=14	=14	=14	=14	=14	=14	=14	=14
1A	-tant	-bre	-sez	main	2c\]	.	.	.	.	2e\]	.	.	.	.	1.a	Moy	En	Et	Et
.	.	.	.	.	2A/	hur-	l'om-	lais-	la	2c\	hur-	l'om-	lais-	la	.	.	.	.	.
2r	.	.	.	.	1d	-tant	-bre	-sez	main	1f	-tant	-bre	-sez	main	.	.	.	.	.
2D\	sur	soubz	vos-	sur	.	.	.	.	.	.	.	.	.	.	2f/	hur-	l'om-	lais-	la
=15	=15	=15	=15	=15	=15	=15	=15	=15	=15	=15	=15	=15	=15	=15	=15	=15	=15	=15	=15
1G	.	.	-tre	.	2r	.	.	.	.	2e\	sur	soubz	vos-	sur	1b-	-tant	-bre	-sez	main
.	.	.	.	.	2G/	sur	soubz	vos-	sur	2.d\	mon	l'au-	-tre	le	.	.	.	.	.
2r	.	.	.	.	1c	.	.	-tre	.	.	.	.	.	.	2a/	sur	soubz	vos-	sur
.	.	.	.	.	.	.	.	.	.	4c\	.	.	.	.	.	.	.	.	.
2C/	mon	l'au-	bis-	le	.	.	.	.	.	[2c\	.	.	bis-	.	[2g/	mon	l'au-	-tre	le
=16	=16	=16	=16	=16	=16	=16	=16	=16	=16	=16	=16	=16	=16	=16	=16	=16	=16	=16	=16
1D	.	.	.	.	2r	.	.	.	.	2c\]	.	.	.	.	4g/]	.	.	.	.
.	.	.	.	.	.	.	.	.	.	.	.	.	.	.	4f/	.	.	.	.
.	.	.	.	.	2F/	mon	l'au-	bis-	le	2B\	che-	-be-	-qua-	te-	1f	.	.	bis-	.
1C	che-	-be-	-qua-	te-	1G	che-	-be-	-qua-	te-	1c	-min,	-pin;	-yn.	-tin.	.	.	.	.	.
.	.	.	.	.	.	.	.	.	.	.	.	.	.	.	2e/	che-	-be-	-qua-	te-
=17	=17	=17	=17	=17	=17	=17	=17	=17	=17	=17	=17	=17	=17	=17	=17	=17	=17	=17	=17
0F	-min,	-pin;	-yn.	-tin.	0F	-min,	-pin;	-yn.	-tin.	1r	.	.	.	.	1f	-min,	-pin;	-yn.	-tin.
.	.	.	.	.	.	.	.	.	.	[1c	Blan-	La	Mec-	A-	1r	.	.	.	.
=18	=18	=18	=18	=18	=18	=18	=18	=18	=18	=18	=18	=18	=18	=18	=18	=18	=18	=18	=18
2.F\	Blan-	La	Mec-	A-	1.A	Blan-	La	Mec-	A-	2c\]	.	.	.	.	1.f	Blan-	La	Mec-	A-
.	.	.	.	.	.	.	.	.	.	4d\	-che	par-	-tons	-dieu,	.	.	.	.	.
4E\	.	.	.	.	.	.	.	.	.	4e\	.	.	.	.	.	.	.	.	.
2.D\	-che	par-	-tons	-dieu,	.	.	.	.	.	2.f\	comme	-le-	no	pe-	.	.	.	.	.
.	.	.	.	.	4B-\	-che	par-	-tons	-dieu,	.	.	.	.	.	4g/	-che	par-	-tons	-dieu,
4C/	.	.	.	.	4c\	.	.	.	.	4e\	.	.	.	.	4a/	.	.	.	.
=19	=19	=19	=19	=19	=19	=19	=19	=19	=19	=19	=19	=19	=19	=19	=19	=19	=19	=19	=19
2BB-/	comme	-le-	no	pe-	1d	comme	-le-	no	pe-	2f\	ung	-rons	be-	-tit	2.b-\	comme	-le-	no	pe-
1B-	.	.	.	.	.	.	.	.	.	2.g\	par-	a	-so-	mu-	.	.	.	.	.
.	.	.	.	.	.	.	.	.	.	.	.	.	.	.	4a/	.	.	.	.
.	.	.	.	.	2B-\	ung	-rons	be-	-tit	.	.	.	.	.	2b-\	ung	-rons	be-	-tit
.	.	.	.	.	.	.	.	.	.	4f\	.	.	.	.	.	.	.	.	.
2A\	ung	-rons	be-	-tit	2F/	par-	a	-so-	mu-	[2f\	.	.	.	.	[2cc\	par-	a	-so-	mu-
=20	=20	=20	=20	=20	=20	=20	=20	=20	=20	=20	=20	=20	=20	=20	=20	=20	=20	=20	=20
1G	par-	a	-so-	mu-	1B-	.	.	.	.	2f\]	.	.	.	.	4cc\]	.	.	.	.
.	.	.	.	.	.	.	.	.	.	.	.	.	.	.	4b-\	.	.	.	.
.	.	.	.	.	.	.	.	.	.	2e\	-che-	bu-	-gne'a	-se-	1b-	.	.	.	.
1F	-che-	bu-	-gne'a	-se-	1c	-che-	bu-	-gne'a	-se-	1f	-min.	-tin;	fin.	-quin,	.	.	.	.	.
.	.	.	.	.	.	.	.	.	.	.	.	.	.	.	2a/	-che-	bu-	-gne'a	-se-
=21	=21	=21	=21	=21	=21	=21	=21	=21	=21	=21	=21	=21	=21	=21	=21	=21	=21	=21	=21
0BB-	-min.	-tin;	fin.	-quin,	1.B-	-min.	-tin;	fin.	-quin,	1r	.	.	.	.	1b-	-min.	-tin;	fin.	-quin,
.	.	.	.	.	.	.	.	.	.	[1f	Je	Faic-	Par-	A-	1r	.	.	.	.
.	.	.	.	.	2c\	Je	Faic-	Par-	A-	.	.	.	.	.	.	.	.	.	.
=22	=22	=22	=22	=22	=22	=22	=22	=22	=22	=22	=22	=22	=22	=22	=22	=22	=22	=22	=22
1B-	la	Faic-	Par-	A-	0d	la	-tes	-lons	-dieu,	2f\]	.	.	.	.	1.b-	Je	Faic-	Par-	A-
.	.	.	.	.	.	.	.	.	.	4e\	la	-tes	-lons	-dieu,	.	.	.	.	.
.	.	.	.	.	.	.	.	.	.	4f\	.	.	.	.	.	.	.	.	.
1G	bai-	-tes	-lons	-dieu,	.	.	.	.	.	1g	bai-	toust	d'a-	so-	.	.	.	.	.
.	.	.	.	.	.	.	.	.	.	.	.	.	.	.	4a/	la	-tes	-lons	-dieu,
.	.	.	.	.	.	.	.	.	.	.	.	.	.	.	4b-\	.	.	.	.
=23	=23	=23	=23	=23	=23	=23	=23	=23	=23	=23	=23	=23	=23	=23	=23	=23	=23	=23	=23
1A	-s&eacute;	toust	.	.	1c	bai-	toust	d'a-	so-	2f\	-s&eacute;	a	-mours,	-yez	1cc	bai-	toust	d'a-	so-
.	.	.	.	.	.	.	.	.	.	2.e\	a	ma	je	ma	.	.	.	.	.
2r	.	.	.	.	1d	-s&eacute;	a	-mours,	-yez	.	.	.	.	.	2b-\	-s&eacute;	a	-mours,	-yez
.	.	.	.	.	.	.	.	.	.	4d\	.	.	.	.	.	.	.	.	.
2D\	mon	re-	vous	po-	.	.	.	.	.	[2d\	.	.	.	.	[2a/	a	ma	je	ma
=24	=24	=24	=24	=24	=24	=24	=24	=24	=24	=24	=24	=24	=24	=24	=24	=24	=24	=24	=24
1E	ai-	-ques-	pri-	-pi-	2r	.	.	.	.	2d\]	.	.	.	.	4a/]	.	.	.	.
.	.	.	.	.	.	.	.	.	.	.	.	.	.	.	4g/	.	.	.	.
.	.	.	.	.	2G/	mon	re-	vous	po-	2c#i\	mon	re-	vous	po-	1g	.	.	.	.
1D	-se,	-te.	-e.	-ne.	1A	ai-	-ques-	pri-	-pi-	1d	ai-	-ques-	pri-	-pi-	.	.	.	.	.
.	.	.	.	.	.	.	.	.	.	.	.	.	.	.	2f#i/	mon	re-	vous	po-
=25	=25	=25	=25	=25	=25	=25	=25	=25	=25	=25	=25	=25	=25	=25	=25	=25	=25	=25	=25
2r	.	.	.	.	1G	-se,	-te.	-e.	-ne.	1d	-se,	-te.	-e.	-ne.	1g	ai-	-ques-	pri-	-pi-
1G	Et	Lors	Lors	Lors	.	.	.	.	.	.	.	.	.	.	.	.	.	.	.
.	.	.	.	.	2r	.	.	.	.	[1e	Et	Lors	Lors	Lors	1g	-se,	-te.	-e.	-ne.
2E\	me	feist	me	me	[2c\	Et	Lors	Lors	Lors	.	.	.	.	.	.	.	.	.	.
=26	=26	=26	=26	=26	=26	=26	=26	=26	=26	=26	=26	=26	=26	=26	=26	=26	=26	=26	=26
1A	dist	sig-	dist,	dit	2c\]	.	.	.	.	2e\]	.	.	.	.	1.a	Et	Lors	Lors	Lors
.	.	.	.	.	2A/	me	feist	me	me	2c\	me	feist	me	me	.	.	.	.	.
2r	.	.	.	.	1d	dist	sig-	dist,	dit	1f	dist	sig-	dist,	dit	.	.	.	.	.
2D\	sans	-ne	n'en	la	.	.	.	.	.	.	.	.	.	.	2f/	me	feist	me	me
=27	=27	=27	=27	=27	=27	=27	=27	=27	=27	=27	=27	=27	=27	=27	=27	=27	=27	=27	=27
1G	fai-	de	doub-	bis-	2r	.	.	.	.	2e\	sans	-ne	n'en	la	1b-	dist	sig-	dist,	dit
.	.	.	.	.	2G/	sans	-ne	n'en	la	2.d\	fai-	de	doub-	bis-	.	.	.	.	.
2r	.	.	.	.	1c	fai-	de	doub-	bis-	.	.	.	.	.	2a/	sans	-ne	n'en	la
.	.	.	.	.	.	.	.	.	.	4c\	-re	la	-tes	-qua-	.	.	.	.	.
2C/	-re	la	-tes	-qua-	.	.	.	.	.	[2c\	noi-	tes-	my-	-y-	[2g/	fai-	de	doub-	bis-
=28	=28	=28	=28	=28	=28	=28	=28	=28	=28	=28	=28	=28	=28	=28	=28	=28	=28	=28	=28
1D	noi-	tes-	my-	-y-	2r	.	.	.	.	2c\]	.	.	.	.	4g/]	.	.	.	.
.	.	.	.	.	.	.	.	.	.	.	.	.	.	.	4f/	-re	la	-tes	-qua-
.	.	.	.	.	2F/	-re	la	-tes	-qua-	2B\	.	.	.	.	1f	noi-	tes-	my-	-y-
1C	-se:	-te:&	-e:&	-ne:&	1G	noise:	teste:&	mye:&	-yne:&	1c	-se:	-te:&	-e:&	-ne:&	.	.	.	.	.
.	.	.	.	.	.	.	.	.	.	.	.	.	.	.	2e/	.	.	.	.
=29	=29	=29	=29	=29	=29	=29	=29	=29	=29	=29	=29	=29	=29	=29	=29	=29	=29	=29	=29
2.F\	Soaz,	.	.	.	1.F	Soaz,	.	.	.	0r	.	.	.	.	1f	-se:	-te:&	-e:&	-ne:&
4G\	.	.	.	.	.	.	.	.	.	.	.	.	.	.	.	.	.	.	.
2.A\	.	.	.	.	.	.	.	.	.	.	.	.	.	.	1r	.	.	.	.
.	.	.	.	.	2G/	.	.	.	.	.	.	.	.	.	.	.	.	.	.
4B-\	.	.	.	.	.	.	.	.	.	.	.	.	.	.	.	.	.	.	.
=30	=30	=30	=30	=30	=30	=30	=30	=30	=30	=30	=30	=30	=30	=30	=30	=30	=30	=30	=30
1.c	.	.	.	.	2A/	.	.	.	.	1r	.	.	.	.	0r	.	.	.	.
.	.	.	.	.	2B-\	.	.	.	.	.	.	.	.	.	.	.	.	.	.
.	.	.	.	.	[1c	.	.	.	.	[1e	Soaz,	.	.	.	.	.	.	.	.
2A\	.	.	.	.	.	.	.	.	.	.	.	.	.	.	.	.	.	.	.
=31	=31	=31	=31	=31	=31	=31	=31	=31	=31	=31	=31	=31	=31	=31	=31	=31	=31	=31	=31
2.A\	soaz,	.	.	.	2c\]	.	.	.	.	2e\]	.	.	.	.	1.a	Soaz,	.	.	.
.	.	.	.	.	4d\	soaz,	.	.	.	4f\	soaz,	.	.	.	.	.	.	.	.
4F\	.	.	.	.	4e\	.	.	.	.	4g\	.	.	.	.	.	.	.	.	.
1F	.	.	.	.	2.f\	or-	.	.	.	[1a	or-	.	.	.	.	.	.	.	.
.	.	.	.	.	.	.	.	.	.	.	.	.	.	.	4b-\	soaz,	.	.	.
.	.	.	.	.	4e\	.	.	.	.	.	.	.	.	.	4cc\	.	.	.	.
=32	=32	=32	=32	=32	=32	=32	=32	=32	=32	=32	=32	=32	=32	=32	=32	=32	=32	=32	=32
2r	.	.	.	.	2.d\	.	.	.	.	2a\]	.	.	.	.	1.dd	or-	.	.	.
1B-	or-	.	.	.	.	.	.	.	.	2.g\	-do-	.	.	.	.	.	.	.	.
.	.	.	.	.	4c\	.	.	.	.	.	.	.	.	.	.	.	.	.	.
.	.	.	.	.	2B-\	.	.	.	.	.	.	.	.	.	.	.	.	.	.
.	.	.	.	.	.	.	.	.	.	4f\	.	.	.	.	.	.	.	.	.
2A\	-do-	.	.	.	2F/	-do-	.	.	.	[2f\	-na-	.	.	.	[2cc\	-do-	.	.	.
=33	=33	=33	=33	=33	=33	=33	=33	=33	=33	=33	=33	=33	=33	=33	=33	=33	=33	=33	=33
1G	-na-	.	.	.	1B-	-na-	.	.	.	2f\]	.	.	.	.	4cc\]	.	.	.	.
.	.	.	.	.	.	.	.	.	.	.	.	.	.	.	4b-\	.	.	.	.
.	.	.	.	.	.	.	.	.	.	2e\	-re-	.	.	.	1b-	-na-	.	.	.
1F	-re-	.	.	.	1c	-re-	.	.	.	[1fl	-quin.	.	.	.	.	.	.	.	.
.	.	.	.	.	.	.	.	.	.	.	.	.	.	.	2a/	-re-	.	.	.
=34	=34	=34	=34	=34	=34	=34	=34	=34	=34	=34	=34	=34	=34	=34	=34	=34	=34	=34	=34
0BB-l	-quin.	.	.	.	0B-l	-quin.	.	.	.	0f]	.	.	.	.	0b-l	-quin.	.	.	.
==	==	==	==	==	==	==	==	==	==	==	==	==	==	==	==	==	==	==	==
*-	*-	*-	*-	*-	*-	*-	*-	*-	*-	*-	*-	*-	*-	*-	*-	*-	*-	*-	*-
!!!RDF**kern: l=long note in original notation
!!!RDF**kern: i=editorial accidental
!!!ENC: Jesse Rodin 2011/09/10; Text: Rodin 2017/06/05
!!!END: 2011/08/18/
!!!EED: Jesse Rodin
!!!EEV: 2018/01/23/
!!attribution-level@Jos: 1 (secure, core group [checkmark])
!!!ONB: Translated from MusicXML and edited on 2018/01/23/ by Craig Sapp
!!muse2ps: C^@{COM}\n@{SCT}^i2I150v100,100,100,120z18c100l2550
